dist/img/references/mango.svg

<svg width="241" height="40" viewBox="0 0 241 40" fill="none" xmlns="http://www.w3.org/2000/svg">
<path d="M240.514 20.1576C240.514 8.8078 230.209 0 217.558 0C204.906 0 194.539 8.40141 194.539 19.5397C194.539 30.0518 202.994 38.4698 214.381 39.8092V33.4481C206.929 32.2206 201.302 26.6556 201.302 19.9585C201.302 12.3657 208.542 6.20361 217.47 6.20361C226.399 6.20361 233.643 12.3657 233.643 19.9585C233.643 26.6017 228.103 32.1335 220.738 33.4149V39.7885C231.669 38.4615 240.518 30.3546 240.518 20.1534M167.568 33.8296C160.543 33.8296 154.559 30.027 152.328 24.6983H145.138C147.518 33.8793 156.865 40 167.962 40C170.537 40 173.506 39.747 175.965 39.1333C181.526 37.7566 187.593 34.1489 187.593 28.447V18.3288H167.493L167.473 24.6983H181.165V27.5886C181.165 30.7817 176.396 32.6311 173.473 33.278C171.901 33.6264 169.882 33.8254 168.26 33.8254H167.56M181.182 11.6484C178.134 8.48435 173.431 6.46071 168.157 6.46071C159.743 6.46071 152.789 11.6276 151.677 18.333H144.632C145.553 7.92868 156.197 0.257101 168.244 0.257101C175.41 0.257101 181.845 2.92349 186.179 7.21543L181.178 11.6484M105.557 1.09061H99.0462V39.1499H105.449V10.7112L131.686 39.1499H136.454V34.5221L105.557 1.09061ZM136.454 1.09061H130.052V19.5729L136.454 26.0004V1.09061ZM80.2239 27.3523L86.129 39.1541H93.8254L74.5179 1.09061H67.5762V1.10305L77.2424 21.2855H64.3956L67.7504 14.7087L64.2546 7.55546L47.9784 39.1499H55.1731L61.2606 27.3523H80.2281M6.45656 1.09475H0V39.1541H6.39851V12.9878L20.9289 36.2181L24.632 30.2924L6.45656 1.09475ZM24.3624 18.955L28.0489 24.7978L35.4593 12.9878V39.1499H41.8412V1.09475H35.3307L24.3666 18.955" fill="black"/>
</svg>

<svg width="241" height="40" viewBox="0 0 241 40" fill="none" xmlns="http://www.w3.org/2000/svg"><path d="M240.514 20.158C240.514 8.808 230.209 0 217.558 0c-12.652 0-23.019 8.401-23.019 19.54 0 10.512 8.455 18.93 19.842 20.27v-6.362c-7.452-1.227-13.079-6.792-13.079-13.49 0-7.592 7.24-13.754 16.168-13.754 8.929 0 16.173 6.162 16.173 13.755 0 6.643-5.54 12.174-12.905 13.456v6.373c10.931-1.326 19.78-9.433 19.78-19.635m-72.95 13.677c-7.025 0-13.009-3.803-15.24-9.132h-7.19C147.518 33.88 156.865 40 167.962 40c2.575 0 5.544-.253 8.003-.867 5.561-1.376 11.628-4.984 11.628-10.686V18.329h-20.1l-.02 6.37h13.692v2.89c0 3.193-4.769 5.042-7.692 5.689-1.572.348-3.591.547-5.213.547h-.7m13.622-22.177c-3.048-3.164-7.751-5.187-13.025-5.187-8.414 0-15.368 5.167-16.48 11.872h-7.045C145.553 7.929 156.197.257 168.244.257c7.166 0 13.601 2.666 17.935 6.958l-5.001 4.433M105.557 1.091h-6.51V39.15h6.402V10.71l26.237 28.439h4.768v-4.628l-30.897-33.43zm30.897 0h-6.402v18.482L136.454 26V1.09zm-56.23 26.261l5.905 11.802h7.696L74.518 1.091h-6.942v.012l9.666 20.183H64.396l3.354-6.577-3.495-7.154L47.978 39.15h7.195l6.088-11.798h18.967M6.457 1.095H0v38.06h6.399V12.987l14.53 23.23 3.703-5.926L6.457 1.095zm17.905 17.86l3.687 5.843 7.41-11.81V39.15h6.382V1.095h-6.51l-10.964 17.86" fill="#000"/></svg>
